X:1
T:Les Moutons
C:Trad.
R:B2
E:8
M:2/4
K:G
d3c B2G2|A3c B2c2|d3c B2G2|A3c B4|d3c B2G2|A3c B2c2|d3c B2G2|A3c B4:|*
B3c B2A2|B2G2 E4|A3F G2E2|A3F G2E2|B3c B2A2|B2G2 E4|A3F G2A2|B2A2 G4:|**
